!!!!SEGMENT: pl-wn--sd-xvi-o-286_anonim--kancjonal-zamoyskich-piesn-o-zywocie-krzescianskim-kto-tu-chce-bogu-sluzyc.krn
!!!cenid: 15xx:841
!!!COM: Anonim
!!!COM-rismID: pe30004985
!!!CDT:
!!!CNT:
!!!GTL: Kancjonał Zamoyskich
!!!OTL: Pieśń o żywocie krześciańskim/Kto tu chce Bogu służyć
!!!PDT: 1558
!!!AGN:
!!!SMS-siglum: PL-Wn
!!!SMS-shelfmark: SD XVI.O.286
!!!SMS-shelfwork: G
!!!SMS-variant:
!!!SMS-altvar:
!!!NIFC-rismSourceID: 990072143
!!!NIFC-islandoraID:
!!!URL-pdf-islandora:
!!!URL-scan: https://polona.pl/item/piesn-o-zywocie-krzescianskim-druga-piesn-y-prosba-aby-pan-bog-nas-przy-slowie-swym,MTE3MTgyNw/3 @EN{Scan on Polona} @PL{Skany w portalu Polona}
!!!ONB-nifc: UWAGA: proszę zapisywać tylko teksty występujące bezpośrednio pod nutami
!!!AIN: 1 tenor
!!!key: C
**kern	**text	**mod-text
*ICvox	*	*
*Itenor	*	*
*mI"Tenor	*	*
*I"TENOR.	*	*
*I'T.	*	*
*mclefGv2	*	*
*clefC4	*	*
*k[]	*	*
*C:	*	*
*M2/1	*	*
*mmet(c|)	*	*
*met(C|)	*	*
=1-	=1-	=1-
*xywh-#5:703,316,1902,795	*	*
2r	.	.
2C/	Kto	Kto
2G/	tu	tu
2G/	chce	chce
=2-	=2-	=2-
2A/	Bo-	Bo-
2B/	-gu	-gu
1c	ſlu-	słu-
=3-	=3-	=3-
1c	-żyć	-żyć
1e	ży-	ży-
*custos:d	*	*
=4-	=4-	=4-
*xywh-#5:709,1075,1918,577	*	*
!LO:LB:g=original	!	!
2d\	-wiąc	-wiąc
1c	w po-	w po-
2B/	-bo-	-bo-
=5-	=5-	=5-
1A	-żno-	-żno-
1G	-sći/	-ści,
=6-	=6-	=6-
2G/	Mu-	Mu-
2G/	-si	-si
2B\	nę-	nę-
2B\	-dze	-dze
=7-	=7-	=7-
1c	v-	u-
*custos:G	*	*
*xywh-#5:709,1621,1902,571	*	*
!LO:LB:g=original	!	!
1G	-żyć	-żyć
=8-	=8-	=8-
1A	y	i
2G/	za-	za-
1F/	-mu-	-mu-
=9-	=9-	=9-
.	.	.
2E/	-tkow	-tków
1D	dos-	doś-
=10-	=10-	=10-
0C	-ći/	-ci,
=11-	=11-	=11-
1c	Być	Być
1d	wſzem	wszem
*custos:c	*	*
=12-	=12-	=12-
*xywh-#5:703,2161,1923,587	*	*
!LO:LB:g=original	!	!
2c\	w nie-	w nie-
2B\	-na-	-na-
1A	-wis-	-wiś-
=13-	=13-	=13-
0G	-ći/	-ci,
=14-	=14-	=14-
2G/	iak	jak
2G/	w E-	w E-
2B\	-wan-	-wan-
2B\	-ye-	-ge-
=15-	=15-	=15-
1c	-li-	-li-
*custos:G	*	*
*xywh-#5:774,2697,1933,592	*	*
!LO:LB:g=original	!	!
1G	-ey	-i
=16-	=16-	=16-
1A	ſam	sam
2G/	Pan	Pan
1F/	Kry-	Kry-
=17-	=17-	=17-
.	.	.
2E/	-ſtus	-stus
1D	is-	iś-
=18-	=18-	=18-
0lC/	-ći.	-ci.
==	==	==
*-	*-	*-
!!LO:MO:ori
!!!RDF**kern: l = terminal long
!!LO:MO:end
!!!filter-modern: siq -sq | modori -m | humtr -p | autostem -r | shed -e "s/-//B; s/custos/CUSTOS/I" | tie -s
!!!ENC: Marta Opryszak
!!!END: 2022-05-18
!!!ENC: Krzysztof Stępień
!!!END: 2022-06-02
!!!ENC-modern: Jacek Iwaszko
!!!END-modern: 2022-07-25
!!!IIIF: https://polona.pl/iiif/item/MTE3MTgyNw/manifest.json
!!!ENC-iiif: Emilia Ziętek
!!!END-iiif: 2022-09-03
!!!YEC: Copyright 2022 Narodowy Instytut Fryderyka Chopina (https://polishscores.org)
!!!YEM: Licence CC BY 4.0 (https://creativecommons.org/licenses/by/4.0)
